svgs/sharp-light/image-portrait.svg

<svg xmlns="http://www.w3.org/2000/svg" viewBox="0 0 384 512"><!--! Font Awesome Pro 6.5.2 by @fontawesome - https://fontawesome.com License - https://fontawesome.com/license (Commercial License) Copyright 2024 Fonticons, Inc. --><path d="M32 32V480H352V32H32zM0 0H32 352h32V32 480v32H352 32 0V480 32 0zM224 192a32 32 0 1 0 -64 0 32 32 0 1 0 64 0zM124.4 352H259.6l-10.7-32H135.1l-10.7 32zM272 288l21.3 64L304 384H270.3 113.7 80l10.7-32L112 288h80 80zM192 128a64 64 0 1 1 0 128 64 64 0 1 1 0-128z"/></svg>

<svg xmlns="http://www.w3.org/2000/svg" viewBox="0 0 384 512"><!--! Font Awesome Pro 6.6.0 by @fontawesome - https://fontawesome.com License - https://fontawesome.com/license (Commercial License) Copyright 2024 Fonticons, Inc. --><path d="M32 32l0 448 320 0 0-448L32 32zM0 0L32 0 352 0l32 0 0 32 0 448 0 32-32 0L32 512 0 512l0-32L0 32 0 0zM224 192a32 32 0 1 0 -64 0 32 32 0 1 0 64 0zM124.4 352l135.2 0-10.7-32-113.9 0-10.7 32zM272 288l21.3 64L304 384l-33.7 0-156.5 0L80 384l10.7-32L112 288l80 0 80 0zM192 128a64 64 0 1 1 0 128 64 64 0 1 1 0-128z"/></svg>
